M48
;DRILL FILE
;Generated by LibrePCB 0.1.0
;Creation Date: 2018-07-30T22:42:00
FMAT,2
METRIC,TZ
T1C0.8
%
G90
G05
M71
T1
X68.38156Y77.311344
X43.18Y71.755
X59.691808Y74.929696
X74.931808Y49.529696
X74.931808Y34.289696
X59.691808Y59.689696
X74.931808Y39.369696
X74.931808Y46.989696
X74.931808Y41.909696
X59.691808Y36.829696
X74.931808Y64.769696
X74.931808Y69.849696
X74.931808Y74.929696
X59.691808Y52.069696
X59.691808Y49.529696
X59.691808Y80.009696
X74.931808Y67.309696
X59.691808Y64.769696
X74.931808Y36.829696
X59.691808Y46.989696
X59.691808Y39.369696
X74.931808Y44.449696
X74.931808Y59.689696
X59.691808Y57.149696
X74.931808Y77.469696
X59.691808Y31.749696
X74.931808Y52.069696
X59.691808Y69.849696
X74.931808Y62.229696
X74.931808Y31.749696
X59.691808Y62.229696
X74.931808Y54.609696
X74.931808Y80.009696
X59.691808Y44.449696
X59.691808Y34.289696
X59.691808Y54.609696
X74.931808Y72.389696
X74.931808Y57.149696
X59.691808Y72.389696
X59.691808Y77.469696
X59.691808Y67.309696
X59.691808Y41.909696
X43.33875Y56.03875
X43.33875Y50.95875
X43.33875Y61.11875
X43.18Y74.77125
X43.18Y69.69125
X43.18Y79.85125
T0
M30
